X:1
T:Sweeten Your Deeds with Love
T:Sweeten Your Deeds with Love
T:Charles Hutchinson Gabriel
T:Ina Mae Duley Ogdon, 1917
T:Public Domain Courtesy of the Cyber Hymnal™
T:Public Domain Courtesy of the Cyber Hymnal™
C:Charles Hutchinson Gabriel
Z:Public Domain
Z:Courtesy of the Cyber Hymnal™
%%score 1 ( 2 3 )
L:1/8
Q:1/4=130
M:6/4
K:C
V:1 treble 
V:2 bass 
V:3 bass 
V:1
 [CE][DF] | [EG]2 [EG]2 [EG]2 [FA]2 [EG]2 [EG]2 | [Ge]2 [Fd]2 [Ec]2 [EG]4 [EA][Ec] | %3
w: 1.~Are you|long- ing some ser- vice for|o- thers to do? Are you|
w: 2.~In each|deed that you do let His|sto- ry be told; By His|
w: 3.~Those who|know not His love wan- der|far from His side— Lead them|
 [FB]2 [FB]2 [FB]2 [FA]2 [FA]2 [FA]2 | [EG]6- [EG]4 [CE][DF] | %5
w: long- ing your Sav- ior to|prove? * Would you|
w: sun- shine the sha- dows re-|move; * With His|
w: to Him, when- ev- er they|rove, * With a|
 [EG]2 [EG]2 [EG]2 [FA]2 [EG]2 [EG]2 | [Ge]2 [Gd]2 [Gc]2 [FA]4 [FA]2 | %7
w: have the world know He is|liv- ing in you? Oh,|
w: love, far more pre- cious than|sil- ver or gold; Oh,|
w: bit of the love of your|Sav- ior who died— Oh,|
 [^Fd] [Fd]3 [FA]2 [FB]4 [Fc]2 | [Fd]6- [Fd]4 z2 ||"^Refrain" [Ge]6 [Ge]6 | %10
w: sweet- en your deeds with|love. *||
w: sweet- en your deeds with|love. *|Love, love,|
w: sweet- en your deeds with|love. *||
 [Fd]2 [Fc]2 [FA]2 [EG]3 [^D^F] [EG]2 | [FB] [FB]3 [FB]2 [FA]4 [FA]2 | [EG]6 [CE]4 [EG]2 | %13
w: |||
w: sweet- en your deeds with love,|Sweet- en your deeds with|love, love; The|
w: |||
 [FA]2 [FA]2 [FA]2 [Fd]2 [Fc]2 [FA]2 | [EG]2 [Gc]2 [Gd]2 [Ge]4 [Ge]2 | %15
w: ||
w: world you may save with the|law Je- sus gave, Then|
w: ||
 [^Fd] [Fd]3 [FA]2 [=FB]4 [FG]2 | [Ec]6- [Ec]4 |] %17
w: ||
w: sweet- en your deeds with|love. *|
w: ||
V:2
 [C,G,][C,G,] | [C,C]2 [C,C]2 [C,C]2 [C,C]2 [C,C]2 [C,C]2 | %2
 [C,C]2 [C,C]2 [C,C]2 [C,C]4 [C,C][C,C] | [G,D]2 [G,D]2 [G,D]2 [G,B,]2 [G,B,]2 [G,B,]2 | %4
 [C,C]6- [C,C]4 [C,G,][C,G,] | [C,C]2 [C,C]2 [C,C]2 [C,C]2 [C,C]2 [C,C]2 | %6
 [C,C]2 [D,B,]2 [E,C]2 [F,C]4 [F,C]2 | [D,C] [D,C]3 [D,D]2 [D,D]4 [D,A,]2 | z2 [G,,B,]4 x6 || %9
 [C,C]6 [C,_B,]6 | [F,A,]2 [F,A,]2 [F,C]2 [C,C]3 [C,C] [C,C]2 | %11
 [G,D] [G,D]3 [G,D]2 [G,B,]4 [G,B,]2 | [C,C]6 [C,G,]4 [C,C]2 | %13
 [F,C]2 [F,C]2 [F,C]2 [F,A,]2 [F,A,]2 [F,C]2 | [C,C]2 [E,C]2 [G,B,]2 C4 [C,C]2 | %15
 [D,C] [D,C]3 [D,D]2 [G,D]4 G,2 | [C,G,]6- [C,G,]4 |] %17
V:3
 x2 | x12 | x12 | x12 | x12 | x12 | x12 | x12 | [G,,B,-]6 A,2 G,F, E,D, || x12 | x12 | x12 | x12 | %13
 x12 | x6 C4 x2 | x10 G,2 | x10 |] %17

